packages/ui-solid/icons/power_28.svg

<svg width="28" height="28" viewBox="0 0 28 28" fill="none" xmlns="http://www.w3.org/2000/svg">
<path fill-rule="evenodd" clip-rule="evenodd" d="M9.33695 5.44153H14.6078C15.8595 5.44152 16.8589 5.44151 17.6662 5.50713C18.4941 5.57442 19.2063 5.71556 19.8608 6.04701C20.9269 6.58688 21.7929 7.45287 22.3327 8.51896C22.6642 9.1735 22.8053 9.88563 22.8726 10.7136C22.9382 11.5208 22.9382 12.5202 22.9382 13.7719V13.8575C22.9382 15.1091 22.9382 16.1086 22.8726 16.9158C22.8053 17.7438 22.6642 18.4559 22.3327 19.1104C21.7929 20.1765 20.9269 21.0425 19.8608 21.5824C19.2063 21.9138 18.4941 22.055 17.6662 22.1223C16.8589 22.1879 15.8595 22.1879 14.6078 22.1879H9.33696C8.08528 22.1879 7.08588 22.1879 6.27859 22.1223C5.45066 22.055 4.73853 21.9138 4.084 21.5824C3.0179 21.0425 2.15191 20.1765 1.61205 19.1104C1.2806 18.4559 1.13945 17.7438 1.07216 16.9158C1.00655 16.1086 1.00655 15.1092 1.00656 13.8575V13.7719C1.00655 12.5202 1.00655 11.5208 1.07216 10.7136C1.13945 9.88563 1.2806 9.1735 1.61205 8.51896C2.15191 7.45287 3.0179 6.58688 4.084 6.04701C4.73853 5.71556 5.45067 5.57442 6.27859 5.50713C7.08588 5.44151 8.08527 5.44152 9.33695 5.44153ZM6.43887 7.4792C5.73261 7.5366 5.30828 7.64484 4.97785 7.81217C4.28753 8.16174 3.72678 8.7225 3.3772 9.41282C3.20988 9.74325 3.10163 10.1676 3.04423 10.8738C2.9859 11.5916 2.98514 12.5105 2.98514 13.8147C2.98514 15.1189 2.9859 16.0378 3.04423 16.7556C3.10163 17.4618 3.20988 17.8861 3.3772 18.2166C3.72678 18.9069 4.28753 19.4677 4.97785 19.8172C5.30828 19.9846 5.73261 20.0928 6.43887 20.1502C7.15659 20.2085 8.07555 20.2093 9.37973 20.2093H14.5651C15.8692 20.2093 16.7882 20.2085 17.5059 20.1502C18.2122 20.0928 18.6365 19.9846 18.9669 19.8172C19.6573 19.4677 20.218 18.9069 20.5676 18.2166C20.7349 17.8861 20.8432 17.4618 20.9006 16.7556C20.9589 16.0378 20.9597 15.1189 20.9597 13.8147C20.9597 12.5105 20.9589 11.5916 20.9006 10.8738C20.8432 10.1676 20.7349 9.74325 20.5676 9.41282C20.218 8.7225 19.6573 8.16174 18.9669 7.81217C18.6365 7.64484 18.2122 7.5366 17.5059 7.4792C16.7882 7.42086 15.8692 7.4201 14.5651 7.4201H9.37973C8.07555 7.4201 7.1566 7.42086 6.43887 7.4792Z" fill="#007AFF"/>
<path d="M8.88893 13.8818L11.9707 9.60509C12.2987 9.14988 13.0176 9.38193 13.0176 9.94301V12.0045C13.0176 12.3237 13.2764 12.5825 13.5957 12.5825H14.9462C15.4412 12.5825 15.7072 13.1642 15.3834 13.5386L11.6279 17.8816C11.2186 18.355 10.4538 17.9309 10.6384 17.333L11.1902 15.5463C11.305 15.1744 11.0271 14.7977 10.6379 14.7977H9.35787C8.88663 14.7977 8.61343 14.2641 8.88893 13.8818Z" fill="#007AFF"/>
<path d="M25.3833 15.8006C26.1088 15.4114 26.6012 14.6527 26.6012 13.7806C26.6012 12.9084 26.1088 12.1497 25.3833 11.7605C24.8207 11.4588 24.273 12.0005 24.273 12.639V14.9221C24.273 15.5606 24.8207 16.1024 25.3833 15.8006Z" fill="#007AFF"/>
</svg>

<svg xmlns="http://www.w3.org/2000/svg" width="28" height="28" fill="none"><path fill="currentColor" fill-rule="evenodd" d="M9.337 5.442h5.27c1.253 0 2.252 0 3.06.065.827.067 1.54.209 2.194.54a5.6 5.6 0 0 1 2.472 2.472c.331.655.472 1.367.54 2.195.065.807.065 1.806.065 3.058v.085c0 1.252 0 2.252-.065 3.059-.068.828-.209 1.54-.54 2.194a5.6 5.6 0 0 1-2.472 2.472c-.655.332-1.367.473-2.195.54-.807.066-1.806.066-3.058.066H9.337c-1.252 0-2.251 0-3.058-.066-.828-.067-1.54-.208-2.195-.54a5.6 5.6 0 0 1-2.472-2.472c-.331-.654-.473-1.366-.54-2.194-.065-.807-.065-1.807-.065-3.059v-.085c0-1.252 0-2.251.065-3.058.067-.828.209-1.54.54-2.195a5.6 5.6 0 0 1 2.472-2.472c.655-.331 1.367-.473 2.195-.54.807-.065 1.806-.065 3.058-.065M6.439 7.479c-.706.058-1.13.166-1.461.333-.69.35-1.251.91-1.6 1.6-.168.331-.276.756-.334 1.462-.058.718-.059 1.636-.059 2.94s0 2.224.06 2.942c.057.706.165 1.13.332 1.46.35.69.91 1.252 1.6 1.601.331.168.756.276 1.462.333.718.059 1.637.06 2.94.06h5.186c1.304 0 2.223-.002 2.94-.06.707-.057 1.132-.165 1.462-.333.69-.35 1.251-.91 1.6-1.6.168-.33.276-.755.334-1.461.058-.718.059-1.637.059-2.941s-.001-2.223-.06-2.941c-.057-.706-.165-1.13-.332-1.461a3.64 3.64 0 0 0-1.601-1.6c-.33-.168-.755-.276-1.461-.334-.718-.058-1.637-.059-2.94-.059H9.38c-1.304 0-2.223 0-2.941.06" clip-rule="evenodd"/><path fill="currentColor" d="m8.889 13.882 3.082-4.277c.328-.455 1.047-.223 1.047.338v2.062c0 .319.258.577.578.577h1.35c.495 0 .761.582.437.957l-3.755 4.343c-.41.473-1.174.049-.99-.549l.552-1.787a.578.578 0 0 0-.552-.748h-1.28a.578.578 0 0 1-.47-.916M25.383 15.8a2.29 2.29 0 0 0 1.218-2.02c0-.872-.492-1.63-1.218-2.02-.562-.301-1.11.24-1.11.879v2.283c0 .639.548 1.18 1.11.879"/></svg>
